X: 32187
T: Petrie's
R: polka
M: 2/4
K: Gmajor
Bd A A/A/|BG AD|Bd A A/A/|BG A2|
Bd A A/A/|BG AD|Dc B2|AF G2|
A2 D>E|FA G/F/G|A2 D>E|FA G2|
A2 D>E|FA G/F/G|A2 D>E|FA G2|

